src/assets/images/icons/delete-bin-2-line.svg

<svg width="24" height="24" viewBox="0 0 24 24" fill="none" xmlns="http://www.w3.org/2000/svg">
<g clip-path="url(#clip0_58_16472)">
<path d="M17 6H22V8H20V21C20 21.2652 19.8946 21.5196 19.7071 21.7071C19.5196 21.8946 19.2652 22 19 22H5C4.73478 22 4.48043 21.8946 4.29289 21.7071C4.10536 21.5196 4 21.2652 4 21V8H2V6H7V3C7 2.73478 7.10536 2.48043 7.29289 2.29289C7.48043 2.10536 7.73478 2 8 2H16C16.2652 2 16.5196 2.10536 16.7071 2.29289C16.8946 2.48043 17 2.73478 17 3V6ZM18 8H6V20H18V8ZM13.414 14L15.182 15.768L13.768 17.182L12 15.414L10.232 17.182L8.818 15.768L10.586 14L8.818 12.232L10.232 10.818L12 12.586L13.768 10.818L15.182 12.232L13.414 14ZM9 4V6H15V4H9Z" fill="#181D27"/>
</g>
<defs>
<clipPath id="clip0_58_16472">
<rect width="24" height="24" fill="white"/>
</clipPath>
</defs>
</svg>

<svg xmlns="http://www.w3.org/2000/svg" width="24" height="24" fill="none" viewBox="0 0 24 24"><g clip-path="url(#a)"><path fill="#181d27" d="M17 6h5v2h-2v13a1 1 0 0 1-1 1H5a1 1 0 0 1-1-1V8H2V6h5V3a1 1 0 0 1 1-1h8a1 1 0 0 1 1 1zm1 2H6v12h12zm-4.586 6 1.768 1.768-1.414 1.414L12 15.414l-1.768 1.768-1.414-1.414L10.586 14l-1.768-1.768 1.414-1.414L12 12.586l1.768-1.768 1.414 1.414zM9 4v2h6V4z"/></g><defs><clipPath id="a"><path fill="#fff" d="M0 0h24v24H0z"/></clipPath></defs></svg>
